src/Images/icons/duya.svg

<svg xmlns="http://www.w3.org/2000/svg" enable-background="new 0 0 512 512" viewBox="0 0 512 512"><path fill="#8c8c8c" d="M336.955,51.595v107.408C193.399,241.07,352.29,150.24,256,205.27v0.053l-80.955-46.32V51.595L256,97.915v-0.053L336.955,51.595z"/><path fill="#8c8c8c" d="M288.191,186.891c0.903-0.531,0.637-0.372,0.637-0.372C288.616,186.625,288.403,186.731,288.191,186.891z"/><polygon fill="#fccd43" points="336.955 51.595 336.955 83.414 256 129.681 175.045 83.414 175.045 51.595 256 97.915 256 97.862"/><polygon fill="#f2f2f2" points="336.941 51.575 256 97.887 175.059 51.575 256 5.311"/><polygon fill="#f76959" points="295.476 151.45 295.476 182.706 274.321 194.795 274.321 163.539"/><path fill="#fccd43" d="M213.504 439.529c-3.293 3.293-5.79 7.118-7.543 11.261-1.753 4.143-2.656 8.659-2.656 13.28v42.602H96.853v-38.565c0-10.836-5.046-21.035-13.705-27.622-7.377-7.252-28.207-14.799-28.207-38.618v-96.253c0-4.25 3.4-7.65 7.649-7.65 9.296 0 17.689 4.302 23.107 11.049v-73.783c0-9.509 7.702-17.264 17.264-17.264 9.639 0 17.211 7.838 17.211 17.264v-26.295c0-9.509 7.702-17.264 17.264-17.264 9.279 0 17.211 7.507 17.211 17.264v20.77c0-9.509 7.702-17.211 17.264-17.211 9.517 0 17.211 7.695 17.211 17.211v32.987c0-9.455 7.702-17.211 17.264-17.211 9.721 0 17.211 7.862 17.211 17.211C220.41 411.323 231.087 421.787 213.504 439.529zM457.059 305.614v96.253c0 10.89-5.046 21.088-13.705 27.622l-14.502 10.996c-8.659 6.587-13.705 16.786-13.705 27.622v38.565H308.695V464.07c0-9.621-3.984-18.327-10.199-24.541-6.427-6.48-10.093-15.299-10.093-24.489V262.693c0-9.349 7.49-17.211 17.211-17.211 9.562 0 17.264 7.755 17.264 17.211v-32.987c0-9.515 7.691-17.211 17.211-17.211 9.562 0 17.264 7.702 17.264 17.211v-20.77c0-9.754 7.928-17.264 17.211-17.264 9.562 0 17.264 7.755 17.264 17.264v26.295c0-9.411 7.556-17.264 17.211-17.264 9.562 0 17.264 7.755 17.264 17.264v73.783c5.418-6.746 13.811-11.049 23.107-11.049C453.659 297.965 457.059 301.365 457.059 305.614z"/><path d="M339.568 163.616c1.652-.947 2.674-2.705 2.674-4.612V51.652c0-.027.01-.051.01-.078 0-1.906-1.022-3.668-2.677-4.612L258.635.7c-1.634-.934-3.636-.934-5.27 0l-80.94 46.262c-1.709.974-2.677 3.012-2.677 4.612 0 .027.01.051.01.078v107.353c0 1.906 1.019 3.665 2.674 4.612l80.925 46.296c1.632.933 3.653.94 5.304-.016.012-.007.021-.018.033-.026L339.568 163.616zM180.382 60.74l70.301 40.226v19.558l-70.301-40.18V60.74zM331.618 60.758v19.587l-70.306 40.182v-19.558C357.66 45.864 324.426 64.872 331.618 60.758zM279.632 185.642v-19.02l10.533-6.017v19.017L279.632 185.642zM300.789 173.552v-22.101c0-1.893-1.009-3.644-2.646-4.594-1.639-.954-3.657-.962-5.302-.018l-21.157 12.087c-1.655.944-2.677 2.705-2.677 4.612v28.188l-7.696 4.4v-63.363l70.306-40.182v63.342L300.789 173.552zM256 11.431l70.241 40.146c-7.182 4.109 26.018-14.886-70.243 40.189l-70.24-40.189L256 11.431zM180.382 155.923V92.581l70.301 40.18v63.381L180.382 155.923zM206.376 240.17c-4.391 0-8.46 1.312-11.929 3.492V229.72c0-12.434-10.118-22.553-22.553-22.553-4.39 0-8.458 1.312-11.926 3.491v-1.735c0-12.434-10.118-22.55-22.553-22.55-12.434 0-22.553 10.116-22.553 22.55v7.243c-3.468-2.178-7.536-3.49-11.926-3.49-12.434 0-22.553 10.116-22.553 22.55v62.294c-5.231-3.083-11.303-4.884-17.801-4.884-7.154 0-12.974 5.82-12.974 12.974v96.275c0 27.07 23.621 36.111 30.349 42.851 7.252 5.509 11.584 14.247 11.584 23.38v38.572c0 2.934 2.378 5.312 5.312 5.312h106.45c2.934 0 5.312-2.378 5.312-5.312v-42.641c0-8.026 3.238-15.361 8.629-20.753 7.423-7.467 11.68-17.762 11.68-28.243V262.72C228.926 250.286 218.811 240.17 206.376 240.17zM218.303 415.051c0 7.698-3.131 15.262-8.578 20.742-7.425 7.425-11.732 17.492-11.732 28.254v37.329h-95.826v-33.26c0-12.434-5.901-24.337-15.788-31.843-7.813-7.545-26.145-13.816-26.145-34.388v-96.275c0-1.297 1.053-2.35 2.35-2.35 13.57 0 24.612 11.06 24.612 24.654V348.9c0 18.047 9.659 35.036 25.209 44.337 2.513 1.502 5.776.69 7.286-1.834 1.504-2.516.685-5.779-1.834-7.286-12.359-7.392-20.037-20.887-20.037-35.218v-20.986c0-7.765-2.549-14.928-6.811-20.762v-71.926c0-6.575 5.351-11.926 11.929-11.926 6.575 0 11.926 5.351 11.926 11.926v98.389c0 2.934 2.378 5.312 5.312 5.312s5.312-2.378 5.312-5.312v-98.389-26.303c0-6.575 5.351-11.926 11.929-11.926 6.578 0 11.929 5.351 11.929 11.926v20.797 103.895c0 2.934 2.378 5.312 5.312 5.312 2.934 0 5.312-2.378 5.312-5.312V229.72c0-6.578 5.351-11.929 11.926-11.929 6.578 0 11.929 5.351 11.929 11.929v103.895c0 2.951 2.4 5.315 5.317 5.315 2.934 0 5.312-2.378 5.312-5.312V262.72c0-6.575 5.348-11.926 11.923-11.926 6.575 0 11.926 5.351 11.926 11.926V415.051zM449.416 292.637c-6.498 0-12.57 1.801-17.801 4.884v-62.294c0-12.434-10.118-22.55-22.553-22.55-4.39 0-8.458 1.312-11.926 3.49v-7.243c0-12.434-10.118-22.55-22.553-22.55s-22.553 10.116-22.553 22.55v1.735c-3.468-2.179-7.536-3.491-11.926-3.491-12.434 0-22.553 10.118-22.553 22.553v13.943c-3.469-2.18-7.538-3.492-11.929-3.492-12.434 0-22.55 10.116-22.55 22.55v152.331c0 10.481 4.256 20.776 11.69 28.254 5.378 5.378 8.619 12.73 8.619 20.742v42.641c0 2.934 2.378 5.312 5.312 5.312h106.45c2.934 0 5.312-2.378 5.312-5.312v-38.572c0-31.529 41.933-27.575 41.933-66.231v-96.275C462.389 298.457 456.569 292.637 449.416 292.637zM451.765 401.885c0 31.77-41.933 27.275-41.933 66.231v33.26h-95.826v-37.329c0-10.84-4.38-20.902-11.721-28.243-5.457-5.491-8.588-13.054-8.588-20.753V262.72c0-6.575 5.351-11.926 11.926-11.926 6.575 0 11.923 5.351 11.923 11.926v70.897c0 2.934 2.378 5.312 5.312 5.312 2.916 0 5.317-2.363 5.317-5.315V229.72c0-6.578 5.351-11.929 11.929-11.929 6.575 0 11.926 5.351 11.926 11.929v103.895c0 2.934 2.378 5.312 5.312 5.312 2.934 0 5.312-2.378 5.312-5.312V229.72v-20.797c0-6.575 5.351-11.926 11.929-11.926s11.929 5.351 11.929 11.926v26.303 98.389c0 2.934 2.378 5.312 5.312 5.312s5.312-2.378 5.312-5.312v-98.389c0-6.575 5.351-11.926 11.926-11.926 6.578 0 11.929 5.351 11.929 11.926v71.926c-4.262 5.833-6.811 12.997-6.811 20.762V348.9c0 14.33-7.677 27.826-20.037 35.218-2.519 1.507-3.338 4.77-1.834 7.286 1.51 2.524 4.775 3.338 7.286 1.834 15.549-9.301 25.209-26.29 25.209-44.337v-20.986c0-13.594 11.042-24.654 24.612-24.654 1.297 0 2.35 1.053 2.35 2.35V401.885z"/></svg>

<svg width="512" height="512" viewBox="0 0 512 512" fill="none" xmlns="http://www.w3.org/2000/svg">
<g clip-path="url(#clip0_0_1)">
<path d="M288.191 186.891C289.094 186.36 288.828 186.519 288.828 186.519C288.616 186.625 288.403 186.731 288.191 186.891Z" fill="#8C8C8C"/>
<path d="M213.504 439.529C210.211 442.822 207.714 446.647 205.961 450.79C204.208 454.933 203.305 459.449 203.305 464.07V506.672H96.853V468.107C96.853 457.271 91.807 447.072 83.148 440.485C75.771 433.233 54.941 425.686 54.941 401.867V305.614C54.941 301.364 58.341 297.964 62.59 297.964C71.886 297.964 80.279 302.266 85.697 309.013V235.23C85.697 225.721 93.399 217.966 102.961 217.966C112.6 217.966 120.172 225.804 120.172 235.23V208.935C120.172 199.426 127.874 191.671 137.436 191.671C146.715 191.671 154.647 199.178 154.647 208.935V229.705C154.647 220.196 162.349 212.494 171.911 212.494C181.428 212.494 189.122 220.189 189.122 229.705V262.692C189.122 253.237 196.824 245.481 206.386 245.481C216.107 245.481 223.597 253.343 223.597 262.692C220.41 411.323 231.087 421.787 213.504 439.529ZM457.059 305.614V401.867C457.059 412.757 452.013 422.955 443.354 429.489L428.852 440.485C420.193 447.072 415.147 457.271 415.147 468.107V506.672H308.695V464.07C308.695 454.449 304.711 445.743 298.496 439.529C292.069 433.049 288.403 424.23 288.403 415.04V262.693C288.403 253.344 295.893 245.482 305.614 245.482C315.176 245.482 322.878 253.237 322.878 262.693V229.706C322.878 220.191 330.569 212.495 340.089 212.495C349.651 212.495 357.353 220.197 357.353 229.706V208.936C357.353 199.182 365.281 191.672 374.564 191.672C384.126 191.672 391.828 199.427 391.828 208.936V235.231C391.828 225.82 399.384 217.967 409.039 217.967C418.601 217.967 426.303 225.722 426.303 235.231V309.014C431.721 302.268 440.114 297.965 449.41 297.965C453.659 297.965 457.059 301.365 457.059 305.614Z" fill="#38BDF8"/>
<path d="M206.376 240.17C201.985 240.17 197.916 241.482 194.447 243.662V229.72C194.447 217.286 184.329 207.167 171.894 207.167C167.504 207.167 163.436 208.479 159.968 210.658V208.923C159.968 196.489 149.85 186.373 137.415 186.373C124.981 186.373 114.862 196.489 114.862 208.923V216.166C111.394 213.988 107.326 212.676 102.936 212.676C90.502 212.676 80.383 222.792 80.383 235.226V297.52C75.152 294.437 69.08 292.636 62.582 292.636C55.428 292.636 49.608 298.456 49.608 305.61V401.885C49.608 428.955 73.229 437.996 79.957 444.736C87.209 450.245 91.541 458.983 91.541 468.116V506.688C91.541 509.622 93.919 512 96.853 512H203.303C206.237 512 208.615 509.622 208.615 506.688V464.047C208.615 456.021 211.853 448.686 217.244 443.294C224.667 435.827 228.924 425.532 228.924 415.051V262.72C228.926 250.286 218.811 240.17 206.376 240.17ZM218.303 415.051C218.303 422.749 215.172 430.313 209.725 435.793C202.3 443.218 197.993 453.285 197.993 464.047V501.376H102.167V468.116C102.167 455.682 96.266 443.779 86.379 436.273C78.566 428.728 60.234 422.457 60.234 401.885V305.61C60.234 304.313 61.287 303.26 62.584 303.26C76.154 303.26 87.196 314.32 87.196 327.914V348.9C87.196 366.947 96.855 383.936 112.405 393.237C114.918 394.739 118.181 393.927 119.691 391.403C121.195 388.887 120.376 385.624 117.857 384.117C105.498 376.725 97.82 363.23 97.82 348.899V327.913C97.82 320.148 95.271 312.985 91.009 307.151V235.225C91.009 228.65 96.36 223.299 102.938 223.299C109.513 223.299 114.864 228.65 114.864 235.225V333.614C114.864 336.548 117.242 338.926 120.176 338.926C123.11 338.926 125.488 336.548 125.488 333.614V235.225V208.922C125.488 202.347 130.839 196.996 137.417 196.996C143.995 196.996 149.346 202.347 149.346 208.922V229.719V333.614C149.346 336.548 151.724 338.926 154.658 338.926C157.592 338.926 159.97 336.548 159.97 333.614V229.72C159.97 223.142 165.321 217.791 171.896 217.791C178.474 217.791 183.825 223.142 183.825 229.72V333.615C183.825 336.566 186.225 338.93 189.142 338.93C192.076 338.93 194.454 336.552 194.454 333.618V262.72C194.454 256.145 199.802 250.794 206.377 250.794C212.952 250.794 218.303 256.145 218.303 262.72V415.051ZM449.416 292.637C442.918 292.637 436.846 294.438 431.615 297.521V235.227C431.615 222.793 421.497 212.677 409.062 212.677C404.672 212.677 400.604 213.989 397.136 216.167V208.924C397.136 196.49 387.018 186.374 374.583 186.374C362.148 186.374 352.03 196.49 352.03 208.924V210.659C348.562 208.48 344.494 207.168 340.104 207.168C327.67 207.168 317.551 217.286 317.551 229.721V243.664C314.082 241.484 310.013 240.172 305.622 240.172C293.188 240.172 283.072 250.288 283.072 262.722V415.053C283.072 425.534 287.328 435.829 294.762 443.307C300.14 448.685 303.381 456.037 303.381 464.049V506.69C303.381 509.624 305.759 512.002 308.693 512.002H415.143C418.077 512.002 420.455 509.624 420.455 506.69V468.118C420.455 436.589 462.388 440.543 462.388 401.887V305.612C462.389 298.457 456.569 292.637 449.416 292.637ZM451.765 401.885C451.765 433.655 409.832 429.16 409.832 468.116V501.376H314.006V464.047C314.006 453.207 309.626 443.145 302.285 435.804C296.828 430.313 293.697 422.75 293.697 415.051V262.72C293.697 256.145 299.048 250.794 305.623 250.794C312.198 250.794 317.546 256.145 317.546 262.72V333.617C317.546 336.551 319.924 338.929 322.858 338.929C325.774 338.929 328.175 336.566 328.175 333.614V229.72C328.175 223.142 333.526 217.791 340.104 217.791C346.679 217.791 352.03 223.142 352.03 229.72V333.615C352.03 336.549 354.408 338.927 357.342 338.927C360.276 338.927 362.654 336.549 362.654 333.615V229.72V208.923C362.654 202.348 368.005 196.997 374.583 196.997C381.161 196.997 386.512 202.348 386.512 208.923V235.226V333.615C386.512 336.549 388.89 338.927 391.824 338.927C394.758 338.927 397.136 336.549 397.136 333.615V235.226C397.136 228.651 402.487 223.3 409.062 223.3C415.64 223.3 420.991 228.651 420.991 235.226V307.152C416.729 312.985 414.18 320.149 414.18 327.914V348.9C414.18 363.23 406.503 376.726 394.143 384.118C391.624 385.625 390.805 388.888 392.309 391.404C393.819 393.928 397.084 394.742 399.595 393.238C415.144 383.937 424.804 366.948 424.804 348.901V327.915C424.804 314.321 435.846 303.261 449.416 303.261C450.713 303.261 451.766 304.314 451.766 305.611L451.765 401.885Z" fill="black"/>
</g>
<defs>
<clipPath id="clip0_0_1">
<rect width="512" height="512" fill="white"/>
</clipPath>
</defs>
</svg>
